X: 1
T: Autumn Child
M: 4/4
L: 1/8
R: reel
K: Edor
B=c|:B2EF G2AG|F2EF D2B,A,|B,EEF GABc|d2cB ABcd|
B2EF G2AG|F2EF D2B,A,|B,EEF GABA|FGFD EFGA:|
|:B2 e2 d3e|c2BA BEFE|DEFG A2Bc|d2cB ABcd|
B2EF G2AG|F2EF D2B,A,|B,EEF GABA|1 FGFD EFGA:|2 FGFD E4||
